images/svg/twitter.svg

<svg width="29" height="28" viewBox="0 0 29 28" fill="none" xmlns="http://www.w3.org/2000/svg">
<path d="M27.634 14C27.634 21.4619 21.6637 27.5 14.3125 27.5C6.96129 27.5 0.991028 21.4619 0.991028 14C0.991028 6.53809 6.96129 0.5 14.3125 0.5C21.6637 0.5 27.634 6.53809 27.634 14Z" stroke="#D4D4D8"/>
<path d="M20.4375 10.9831C20.0238 11.1693 19.5872 11.2857 19.1275 11.3556C19.5872 11.0762 19.9549 10.6339 20.1158 10.0985C19.6791 10.3546 19.1965 10.5408 18.6679 10.6572C18.2542 10.2149 17.6567 9.93555 17.0132 9.93555C15.7721 9.93555 14.7609 10.9598 14.7609 12.2169C14.7609 12.4031 14.7839 12.5661 14.8299 12.729C12.9683 12.6359 11.2906 11.728 10.1645 10.3313C9.98062 10.6805 9.86571 11.0529 9.86571 11.472C9.86571 12.2634 10.2564 12.9618 10.8769 13.3808C10.5092 13.3576 10.1645 13.2644 9.84273 13.1015V13.1248C9.84273 14.2422 10.6241 15.1733 11.6583 15.3828C11.4745 15.4294 11.2676 15.4527 11.0608 15.4527C10.9229 15.4527 10.762 15.4294 10.6241 15.4061C10.9229 16.314 11.7503 16.9891 12.7385 16.9891C11.9571 17.5943 10.9918 17.9668 9.93466 17.9668C9.7508 17.9668 9.56694 17.9668 9.40607 17.9435C10.4173 18.5953 11.5894 18.9678 12.8764 18.9678C17.0362 18.9678 19.3114 15.476 19.3114 12.4497C19.3114 12.3566 19.3114 12.2402 19.3114 12.1471C19.7481 11.8444 20.1388 11.4487 20.4375 10.9831Z" fill="white"/>
</svg>

<svg xmlns="http://www.w3.org/2000/svg" width="29" height="28" fill="none"><path stroke="#D4D4D8" d="M27.634 14c0 7.462-5.97 13.5-13.322 13.5C6.963 27.5.992 21.462.992 14S6.961.5 14.313.5c7.35 0 13.321 6.038 13.321 13.5Z"/><path fill="#fff" d="M20.438 10.983c-.414.186-.85.303-1.31.373.46-.28.827-.722.988-1.258-.437.257-.92.443-1.448.56a2.277 2.277 0 0 0-1.655-.722c-1.24 0-2.252 1.024-2.252 2.28 0 .187.023.35.069.513a6.412 6.412 0 0 1-4.665-2.398c-.184.35-.3.722-.3 1.141 0 .791.391 1.49 1.012 1.909a2.632 2.632 0 0 1-1.034-.28v.024c0 1.117.781 2.048 1.815 2.258-.183.046-.39.07-.597.07a2.78 2.78 0 0 1-.437-.047c.299.908 1.126 1.583 2.114 1.583a4.561 4.561 0 0 1-2.803.978c-.184 0-.368 0-.529-.023a6.336 6.336 0 0 0 3.47 1.024c4.16 0 6.435-3.492 6.435-6.518v-.303a4.155 4.155 0 0 0 1.127-1.164Z"/></svg>
